X:22
T:A and D
O:england
S:EF
M:4/4
K:A
M:6/8
P:A
f|"A"ecc c2f|"A"ecc F2f|"A"ecc cBA|"Bm"BcB "E7"B2f|
"A"ecc c2f|"A"ecc c2c/2d/2F|"D"efe "E7"dcB| [1"A"Ace a2:|
[2"A"Ace ag=g||\
K:D
P:B
"D"f2f Fd2d|"D"AFF Af2e/2f/2|"G"g2g ecd|"Em"efd "A7"cBAF|
"D"f^ef dcd|"D"AFF AFfef|"G"gfg F"A7"AFBFc |1"D"d3 d2e:|2"D"d3 d2||


